art/trane.svg

<svg version="1.0" viewBox="0 0 900 212" xmlns="http://www.w3.org/2000/svg">
  <defs>
    <linearGradient gradientUnits="userSpaceOnUse" x1="107.992" y1="11.217" x2="107.992" y2="200.515" id="gradient-0">
      <stop offset="0" style="stop-color: rgb(14, 65, 111);"></stop>
      <stop offset="1" style="stop-color: rgb(0% 0% 0%)"></stop>
    </linearGradient>
    <linearGradient gradientUnits="userSpaceOnUse" x1="550.5" y1="9.8" x2="550.5" y2="199" id="gradient-1">
      <stop offset="0" style="stop-color: rgb(14, 65, 111);"></stop>
      <stop offset="1" style="stop-color: rgb(0% 0% 0%)"></stop>
    </linearGradient>
  </defs>
  <path d="M 211 25.8 L 211 41.9 L 255.3 42.2 C 298.2 42.5 299.6 42.6 304.2 44.7 C 316.1 50.2 321.5 59.6 320.8 73.1 C 320.1 84.4 315.6 92.2 306.4 97.6 C 298.4 102.3 291.7 103 249.8 103 L 211 103 L 211 199 L 247 199 L 247 132 L 268.3 132.2 L 289.5 132.5 L 307 165.5 L 324.5 198.5 L 344.8 198.8 C 355.9 198.9 365 198.8 365 198.5 C 365 198.3 355.3 182 343.5 162.4 C 331.7 142.9 322 126.7 322 126.5 C 322 126.3 324.1 124.9 326.8 123.2 C 343.8 112.7 355 91.3 355 69 C 355 44.9 344.8 27.2 325.8 18.2 C 310.8 11 308.3 10.7 256.8 10.2 L 211 9.8 L 211 25.8 Z M 411.7 103.9 C 393.2 155.5 378 198.1 378 198.4 C 378 198.7 386.7 199 397.3 199 L 416.5 199 L 441.6 124.2 C 458.7 73.1 467.1 49.4 468.2 49.2 C 469.8 48.9 469 46.9 489.8 105 C 496.4 123.4 506.7 152.1 512.6 168.7 L 523.4 199 L 544.2 199 C 555.6 199 565 198.8 565 198.5 C 565 198.2 557.5 178.9 548.4 155.7 C 539.2 132.5 530 109 527.9 103.5 C 525.8 98 516.7 74.8 507.7 52 L 491.4 10.5 L 468.4 10.2 L 445.3 10 L 411.7 103.9 Z M 576 10.9 C 576 11.4 604.7 53.8 639.9 105.2 L 703.7 198.5 L 721.9 198.8 L 740 199 L 740 10 L 705 10 L 705 75.7 C 705 128.3 704.7 141.2 703.8 140.2 C 703.1 139.5 682.2 110 657.5 74.7 L 612.4 10.5 L 594.2 10.2 C 583.5 10.1 576 10.3 576 10.9 Z M 750 27.5 L 750 45 L 890 45 L 890 10 L 750 10 L 750 27.5 Z M 576 127.8 L 576 199 L 612 199 L 612 107.4 L 594.9 83 C 585.5 69.5 577.4 58.1 576.9 57.5 C 576.4 57 576 85.5 576 127.8 Z M 750 104.5 L 750 121 L 890 121 L 890 88 L 750 88 L 750 104.5 Z M 750 181.5 L 750 199 L 890 199 L 890 164 L 750 164 L 750 181.5 Z" style="fill: url(#gradient-1);"></path>
  <path d="M 17.317 12.317 C 16.317 12.817 15.117 14.917 14.517 17.017 C 13.117 22.117 13.117 167.617 14.517 170.317 C 15.117 171.317 16.117 172.217 16.817 172.217 C 17.517 172.217 42.917 147.317 73.317 116.917 C 120.017 70.117 128.517 61.217 128.517 58.817 C 128.517 56.517 125.017 52.617 107.417 35.417 C 95.817 24.017 84.717 13.917 82.717 13.017 C 79.517 11.517 75.317 11.317 49.017 11.317 C 30.917 11.317 18.317 11.717 17.317 12.317 Z M 136.417 13.617 C 135.417 15.617 135.617 16.517 137.317 18.917 C 138.417 20.417 152.117 34.417 167.717 49.917 C 186.017 68.217 196.817 78.217 198.117 78.217 C 202.417 78.217 202.517 77.217 202.517 46.017 L 202.517 16.117 L 200.017 13.717 L 197.617 11.217 L 137.517 11.217 L 136.417 13.617 Z M 151.017 84.217 C 148.317 85.217 42.617 191.917 41.217 194.917 C 40.417 196.817 40.517 197.617 41.917 199.017 C 43.517 200.617 48.817 200.717 118.817 200.317 C 161.917 200.117 195.117 199.517 196.517 199.017 C 202.717 196.717 202.517 197.917 202.517 162.717 L 202.517 130.417 L 197.817 125.117 C 184.617 109.917 158.617 84.917 155.017 83.917 C 153.917 83.617 152.117 83.717 151.017 84.217 Z" style="fill: url(#gradient-0);"></path>
</svg>

<svg xmlns="http://www.w3.org/2000/svg" version="1.0" viewBox="0 0 900 212"><path d="M13.8 11.1c-1 .5-2.2 2.6-2.8 4.7-1.4 5.1-1.4 150.6 0 153.3.6 1 1.6 1.9 2.3 1.9.7 0 26.1-24.9 56.5-55.3C116.5 68.9 125 60 125 57.6c0-2.3-3.5-6.2-21.1-23.4-11.6-11.4-22.7-21.5-24.7-22.4-3.2-1.5-7.4-1.7-33.7-1.7-18.1 0-30.7.4-31.7 1zm119.1 1.3c-1 2-.8 2.9.9 5.3 1.1 1.5 14.8 15.5 30.4 31C182.5 67 193.3 77 194.6 77c4.3 0 4.4-1 4.4-32.2V14.9l-2.5-2.4-2.4-2.5H134l-1.1 2.4zM211 25.8v16.1l44.3.3c42.9.3 44.3.4 48.9 2.5 11.9 5.5 17.3 14.9 16.6 28.4-.7 11.3-5.2 19.1-14.4 24.5-8 4.7-14.7 5.4-56.6 5.4H211v96h36v-67l21.3.2 21.2.3 17.5 33 17.5 33 20.3.3c11.1.1 20.2 0 20.2-.3 0-.2-9.7-16.5-21.5-36.1-11.8-19.5-21.5-35.7-21.5-35.9 0-.2 2.1-1.6 4.8-3.3 17-10.5 28.2-31.9 28.2-54.2 0-24.1-10.2-41.8-29.2-50.8-15-7.2-17.5-7.5-69-8L211 9.8v16zm200.7 78.1c-18.5 51.6-33.7 94.2-33.7 94.5 0 .3 8.7.6 19.3.6h19.2l25.1-74.8c17.1-51.1 25.5-74.8 26.6-75 1.6-.3.8-2.3 21.6 55.8 6.6 18.4 16.9 47.1 22.8 63.7l10.8 30.3h20.8c11.4 0 20.8-.2 20.8-.5s-7.5-19.6-16.6-42.8c-9.2-23.2-18.4-46.7-20.5-52.2-2.1-5.5-11.2-28.7-20.2-51.5l-16.3-41.5-23-.3-23.1-.2-33.6 93.9zm164.3-93c0 .5 28.7 42.9 63.9 94.3l63.8 93.3 18.2.3 18.1.2V10h-35v65.7c0 52.6-.3 65.5-1.2 64.5-.7-.7-21.6-30.2-46.3-65.5l-45.1-64.2-18.2-.3c-10.7-.1-18.2.1-18.2.7zm174 16.6V45h140V10H750v17.5zM576 127.8V199h36v-91.6L594.9 83c-9.4-13.5-17.5-24.9-18-25.5-.5-.5-.9 28-.9 70.3zM147.5 83c-2.7 1-108.4 107.7-109.8 110.7-.8 1.9-.7 2.7.7 4.1 1.6 1.6 6.9 1.7 76.9 1.3 43.1-.2 76.3-.8 77.7-1.3 6.2-2.3 6-1.1 6-36.3v-32.3l-4.7-5.3c-13.2-15.2-39.2-40.2-42.8-41.2-1.1-.3-2.9-.2-4 .3zM750 104.5V121h140V88H750v16.5zm0 77V199h140v-35H750v17.5z"/></svg>
